icons/arrow-switch-16.svg

<svg width="16" height="16" viewBox="0 0 16 16" fill="none" xmlns="http://www.w3.org/2000/svg">
<path d="M5.21967 14.7803C5.51256 15.0732 5.98744 15.0732 6.28033 14.7803C6.57322 14.4874 6.57322 14.0126 6.28033 13.7197L4.56066 12H13.25C13.6642 12 14 11.6642 14 11.25C14 10.8358 13.6642 10.5 13.25 10.5H4.56066L6.28033 8.78033C6.57322 8.48744 6.57322 8.01256 6.28033 7.71967C5.98744 7.42678 5.51256 7.42678 5.21967 7.71967L2.21967 10.7197C1.92678 11.0126 1.92678 11.4874 2.21967 11.7803L5.21967 14.7803Z" fill="black"/>
<path d="M10.7803 8.28033C10.4874 8.57322 10.0126 8.57322 9.71967 8.28033C9.42678 7.98744 9.42678 7.51256 9.71967 7.21967L11.4393 5.5H2.75C2.33579 5.5 2 5.16421 2 4.75C2 4.33579 2.33579 4 2.75 4H11.4393L9.71967 2.28033C9.42678 1.98744 9.42678 1.51256 9.71967 1.21967C10.0126 0.926777 10.4874 0.926777 10.7803 1.21967L13.7803 4.21967C14.0732 4.51256 14.0732 4.98744 13.7803 5.28033L10.7803 8.28033Z" fill="black"/>
</svg>

<svg xmlns="http://www.w3.org/2000/svg" width="16" height="16" viewBox="0 0 16 16"><path d="M5.22 14.78a.75.75 0 001.06-1.06L4.56 12h8.69a.75.75 0 000-1.5H4.56l1.72-1.72a.75.75 0 00-1.06-1.06l-3 3a.75.75 0 000 1.06l3 3zm5.56-6.5a.75.75 0 11-1.06-1.06l1.72-1.72H2.75a.75.75 0 010-1.5h8.69L9.72 2.28a.75.75 0 011.06-1.06l3 3a.75.75 0 010 1.06l-3 3z"/></svg>
